src/svg/color/wtc.svg

<svg xmlns="http://www.w3.org/2000/svg" width="32" height="32" viewBox="0 0 32 32"><g fill="none" fill-rule="evenodd"><circle cx="16" cy="16" r="16" fill="#8200FF" fill-rule="nonzero"/><path fill="#FFF" d="M18.4137931,13.1663838 L17.7344336,13.3326946 C17.1204102,13.4830107 16.6896552,14.0232476 16.6896552,14.6430169 L16.6896552,19.1806744 L14.443128,19.7306359 C14.0736143,19.8210948 13.6991767,19.6011005 13.6067983,19.239265 C13.5931223,19.1856979 13.5862069,19.1306905 13.5862069,19.0754747 L13.5862069,11.5196403 C13.5862069,11.2097556 13.8015844,10.9396372 14.1085961,10.8644791 L17.556872,10.0203233 C17.9263857,9.92986438 18.3008233,10.1498586 18.3932017,10.5116941 C18.4068777,10.5652613 18.4137931,10.6202687 18.4137931,10.6754844 L18.4137931,13.1663838 Z M10.8275862,13.124176 L9.97581293,13.3326946 C9.36178948,13.4830107 8.93103448,14.0232476 8.93103448,14.6430169 L8.93103448,19.2228822 L6.85692112,19.7306359 C6.48740739,19.8210948 6.11296981,19.6011005 6.02059138,19.239265 C6.00691541,19.1856979 6,19.1306905 6,19.0754747 L6,11.5196403 C6,11.2097556 6.2153775,10.9396372 6.52238922,10.8644791 L9.97066509,10.0203233 C10.3401788,9.92986438 10.7146164,10.1498586 10.8069948,10.5116941 C10.8206708,10.5652613 10.8275862,10.6202687 10.8275862,10.6754844 L10.8275862,13.124176 Z M21.694803,10.8851034 L25.1430789,10.0409476 C25.5125926,9.95048869 25.8870302,10.1704829 25.9794086,10.5323184 C25.9930846,10.5858856 26,10.640893 26,10.6961087 L26,18.2519432 C26,18.5618278 25.7846225,18.8319463 25.4776108,18.9071044 L22.0293349,19.7512602 C21.6598212,19.8417191 21.2853836,19.6217249 21.1930052,19.2598893 C21.1793292,19.2063222 21.1724138,19.1513148 21.1724138,19.0960991 L21.1724138,11.5402646 C21.1724138,11.2303799 21.3877913,10.9602615 21.694803,10.8851034 Z"/><path fill="#FFF" d="M12.8965517,13.3137913 L12.8965517,19.0754747 C12.8965517,19.1859063 12.9103826,19.295921 12.9377345,19.4030553 C13.108976,20.0737882 13.7648214,20.5008244 14.4482759,20.4156648 L14.4482759,21.3546955 C14.4482759,21.6645802 14.2328984,21.9346986 13.9258866,22.0098567 L10.4776108,22.8540125 C10.108097,22.9444714 9.73365947,22.7244772 9.64128103,22.3626416 C9.62760507,22.3090745 9.62068966,22.2540671 9.62068966,22.1988514 L9.62068966,14.6430169 C9.62068966,14.3331323 9.83606715,14.0630138 10.1430789,13.9878557 L12.8965517,13.3137913 Z M20.4827586,13.3559991 L20.4827586,19.0960991 C20.4827586,19.2065306 20.4965894,19.3165453 20.5239414,19.4236796 C20.7086982,20.1473507 21.4575734,20.5873391 22.1966009,20.4064214 L22.2068966,20.4039009 L22.2068966,21.3546955 C22.2068966,21.6645802 21.9915191,21.9346986 21.6845073,22.0098567 L18.2362315,22.8540125 C17.8667177,22.9444714 17.4922802,22.7244772 17.3999017,22.3626416 C17.3862258,22.3090745 17.3793103,22.2540671 17.3793103,22.1988514 L17.3793103,14.6430169 C17.3793103,14.3331323 17.5946878,14.0630138 17.9016996,13.9878557 L20.4827586,13.3559991 Z" opacity=".504"/></g></svg>

<svg xmlns="http://www.w3.org/2000/svg" width="32" height="32" viewBox="0 0 32 32"><g fill="none" fill-rule="evenodd"><circle cx="16" cy="16" r="16" fill="#8200FF" fill-rule="nonzero"/><path fill="#FFF" d="M18.414 13.166l-.68.167c-.614.15-1.044.69-1.044 1.31v4.538l-2.247.55a.69.69 0 0 1-.836-.492.662.662 0 0 1-.02-.164V11.52c0-.31.215-.58.522-.656l3.448-.844a.69.69 0 0 1 .836.492c.014.053.02.108.02.163v2.491zm-7.586-.042l-.852.209c-.614.15-1.045.69-1.045 1.31v4.58l-2.074.508a.69.69 0 0 1-.836-.492.662.662 0 0 1-.021-.164V11.52c0-.31.215-.58.522-.656l3.449-.844a.69.69 0 0 1 .836.492c.014.053.02.108.02.163v2.45zm10.867-2.239l3.448-.844a.69.69 0 0 1 .836.491.653.653 0 0 1 .021.164v7.556c0 .31-.215.58-.522.655l-3.449.844a.69.69 0 0 1-.836-.491.662.662 0 0 1-.02-.164V11.54c0-.31.215-.58.522-.655z"/><path fill="#FFF" d="M12.897 13.314v5.761c0 .11.013.22.04.328a1.38 1.38 0 0 0 1.511 1.013v.939c0 .31-.215.58-.522.655l-3.448.844a.69.69 0 0 1-.837-.491.662.662 0 0 1-.02-.164v-7.556c0-.31.215-.58.522-.655l2.754-.674zm7.586.042v5.74c0 .11.014.22.04.328.186.723.935 1.163 1.674.982l.01-.002v.95a.68.68 0 0 1-.522.656l-3.449.844a.69.69 0 0 1-.836-.491.662.662 0 0 1-.02-.164v-7.556c0-.31.215-.58.522-.655l2.58-.632z" opacity=".504"/></g></svg>
